icons/add-to-model-24.svg

<?xml version="1.0" encoding="UTF-8"?><svg id="icons" xmlns="http://www.w3.org/2000/svg" viewBox="0 0 24 24"><defs><style>.cls-1{fill:none;}.cls-1,.cls-2{stroke-width:0px;}</style></defs><path class="cls-2" d="M21.5,15c-1.20764,0-2.21722.86005-2.44946,2h-2.05054v-1h-2.29297l-1.14606-1.14606c.24493-.39087.38904-.85431.38904-1.35394,0-1.37891-1.07111-2.5-2.45001-2.5s-2.5,1.12109-2.5,2.5,1.12109,2.5,2.5,2.5c.51294,0,.9826-.15607,1.37109-.42188l1.12891,1.12891v1.55469l-1.14899,1.14899c-.38477-.25793-.84637-.41071-1.35101-.41071-1.37891,0-2.5,1.12109-2.5,2.5s1.12109,2.5,2.5,2.5,2.45001-1.12109,2.45001-2.5c0-.50793-.14728-.97961-.39978-1.37445l1.12555-1.12555h2.32422v-1h2.05054c.23224,1.13995,1.24182,2,2.44946,2,1.37891,0,2.45001-1.12109,2.45001-2.5s-1.07111-2.5-2.45001-2.5ZM11.5,15c-.82715,0-1.5-.67285-1.5-1.5s.67285-1.5,1.5-1.5,1.5.67285,1.5,1.5-.67285,1.5-1.5,1.5ZM11.5,23c-.82715,0-1.5-.67285-1.5-1.5s.67285-1.5,1.5-1.5,1.5.67285,1.5,1.5-.67285,1.5-1.5,1.5ZM16,18h-1v-1h1v1ZM21.5,19c-.82715,0-1.5-.67285-1.5-1.5s.67285-1.5,1.5-1.5,1.5.67285,1.5,1.5-.67285,1.5-1.5,1.5ZM9.20117,18.50586l-2.84766,2.84766-.70703-.70703,1.64648-1.64648h-2.29297c-1.6543,0-3-1.3457-3-3v-2h1v2c0,1.10254.89746,2,2,2h2.28101l-1.63452-1.63379.70703-.70703,2.84766,2.84668ZM4.95001,10.5c0-.51703-.10767-.9978-.37738-1.39685l1.10315-1.10315h2.32422v-1h2.05054c.23224,1.13995,1.24182,2,2.44946,2,1.37891,0,2.45001-1.12109,2.45001-2.5s-1.07111-2.5-2.45001-2.5c-1.20764,0-2.21722.86005-2.44946,2h-2.05054v-1h-2.29297l-1.12341-1.12341c.26196-.39526.36639-.86774.36639-1.37659,0-1.37891-1.07111-2.5-2.45001-2.5S0,1.12109,0,2.5s1.12109,2.5,2.5,2.5c.50885,0,.98132-.15442,1.37659-.41638l1.12341,1.12341v1.55469l-1.14362,1.14362c-.39136-.25421-.85577-.40533-1.35638-.40533-1.37891,0-2.5,1.12109-2.5,2.5s1.12109,2.5,2.5,2.5,2.45001-1.12109,2.45001-2.5ZM12.5,5c.82715,0,1.5.67285,1.5,1.5s-.67285,1.5-1.5,1.5-1.5-.67285-1.5-1.5.67285-1.5,1.5-1.5ZM6,6h1v1h-1v-1ZM2.5,4c-.82715,0-1.5-.67285-1.5-1.5s.67285-1.5,1.5-1.5,1.5.67285,1.5,1.5-.67285,1.5-1.5,1.5ZM1,10.5c0-.82715.67285-1.5,1.5-1.5s1.5.67285,1.5,1.5-.67285,1.5-1.5,1.5-1.5-.67285-1.5-1.5Z"/><rect class="cls-1" width="24" height="24"/></svg>

<svg xmlns="http://www.w3.org/2000/svg" viewBox="0 0 24 24"><path d="M21.5 15c-1.208 0-2.217.86-2.45 2H17v-1h-2.293l-1.146-1.146a2.54 2.54 0 0 0 .389-1.354c0-1.379-1.071-2.5-2.45-2.5S9 12.121 9 13.5s1.121 2.5 2.5 2.5a2.41 2.41 0 0 0 1.371-.422L14 16.707v1.555l-1.149 1.149A2.412 2.412 0 0 0 11.5 19C10.121 19 9 20.121 9 21.5s1.121 2.5 2.5 2.5 2.45-1.121 2.45-2.5c0-.508-.147-.98-.4-1.374L14.676 19H17v-1h2.05c.233 1.14 1.242 2 2.45 2 1.379 0 2.45-1.121 2.45-2.5S22.879 15 21.5 15zm-10 0c-.827 0-1.5-.673-1.5-1.5s.673-1.5 1.5-1.5 1.5.673 1.5 1.5-.673 1.5-1.5 1.5zm0 8c-.827 0-1.5-.673-1.5-1.5s.673-1.5 1.5-1.5 1.5.673 1.5 1.5-.673 1.5-1.5 1.5zm4.5-5h-1v-1h1v1zm5.5 1c-.827 0-1.5-.673-1.5-1.5s.673-1.5 1.5-1.5 1.5.673 1.5 1.5-.673 1.5-1.5 1.5zm-12.299-.494l-2.847 2.848-.708-.708L7.293 19H5c-1.654 0-3-1.346-3-3v-2h1v2c0 1.103.897 2 2 2h2.281l-1.635-1.634.708-.707L9.2 18.506zM4.95 10.5c0-.517-.108-.998-.377-1.397L5.676 8H8V7h2.05c.233 1.14 1.242 2 2.45 2 1.379 0 2.45-1.121 2.45-2.5S13.879 4 12.5 4c-1.208 0-2.217.86-2.45 2H8V5H5.707L4.584 3.877c.262-.396.366-.868.366-1.377C4.95 1.121 3.879 0 2.5 0S0 1.121 0 2.5 1.121 5 2.5 5c.509 0 .981-.154 1.377-.416L5 5.707v1.555L3.856 8.405A2.481 2.481 0 0 0 2.5 8C1.121 8 0 9.121 0 10.5S1.121 13 2.5 13s2.45-1.121 2.45-2.5zM12.5 5c.827 0 1.5.673 1.5 1.5S13.327 8 12.5 8 11 7.327 11 6.5 11.673 5 12.5 5zM6 6h1v1H6V6zM2.5 4C1.673 4 1 3.327 1 2.5S1.673 1 2.5 1 4 1.673 4 2.5 3.327 4 2.5 4zM1 10.5C1 9.673 1.673 9 2.5 9S4 9.673 4 10.5 3.327 12 2.5 12 1 11.327 1 10.5z" stroke-width="0"/><path stroke-width="0" fill="none" d="M0 0h24v24H0z"/></svg>
